Papirus/64x64/mimetypes/text-x-copying.svg

<svg xmlns="http://www.w3.org/2000/svg" width="64" height="64" version="1.1">
 <path style="opacity:0.2" d="M 12.75,5 C 11.2265,5 10,6.2488 10,7.8 v 50.4 c 0,1.55008 1.2265,2.8 2.75,2.8 h 38.5 C 52.7724,61 54,59.75008 54,58.2 V 23 L 40,19 36,5 Z"/>
 <path style="fill:#e4e4e4" d="M 12.75,4 C 11.2265,4 10,5.2488 10,6.8 v 50.4 c 0,1.55008 1.2265,2.8 2.75,2.8 h 38.5 C 52.7724,60 54,58.75008 54,57.2 V 22 L 40,18 36,4 Z"/>
 <path style="opacity:0.2" d="M 54,23 36,5 V 20.1875 C 36,21.74675 37.2555,23 38.8125,23 Z"/>
 <path style="fill:#fafafa" d="M 54,22 36,4 V 19.1875 C 36,20.74675 37.2555,22 38.8125,22 Z"/>
 <path style="opacity:0.2;fill:#ffffff" d="M 12.75 4 C 11.2265 4 10 5.2495812 10 6.8007812 L 10 7.8007812 C 10 6.2495813 11.2265 5 12.75 5 L 36 5 L 36 4 L 12.75 4 z"/>
 <path style="fill:#3f3f3f" d="M 32 27 A 14 14 0 0 0 18 41 A 14 14 0 0 0 32 55 A 14 14 0 0 0 46 41 A 14 14 0 0 0 32 27 z M 32 30 A 11 11 0 0 1 43 41 A 11 11 0 0 1 32 52 A 11 11 0 0 1 21 41 A 11 11 0 0 1 32 30 z"/>
 <path style="fill:#3f3f3f" d="M 32 33 A 8 8 0 0 0 24 41 A 8 8 0 0 0 32 49 A 8 8 0 0 0 37.470703 46.824219 L 35.001953 44.992188 A 5 5 0 0 1 32 46 A 5 5 0 0 1 27 41 A 5 5 0 0 1 32 36 A 5 5 0 0 1 35.041016 37.039062 L 37.511719 35.205078 A 8 8 0 0 0 32 33 z"/>
</svg>

<?xml version="1.0" encoding="UTF-8" standalone="no"?>
<svg
   id="_图层_1"
   data-name="图层_1"
   version="1.1"
   viewBox="0 0 128 128"
   width="64"
   height="64"
   sodipodi:docname="text-x-copying.svg"
   xml:space="preserve"
   inkscape:version="1.4 (e7c3feb100, 2024-10-09)"
   xmlns:inkscape="http://www.inkscape.org/namespaces/inkscape"
   xmlns:sodipodi="http://sodipodi.sourceforge.net/DTD/sodipodi-0.dtd"
   xmlns="http://www.w3.org/2000/svg"
   xmlns:svg="http://www.w3.org/2000/svg"><sodipodi:namedview
     id="namedview3"
     pagecolor="#505050"
     bordercolor="#eeeeee"
     borderopacity="1"
     inkscape:showpageshadow="0"
     inkscape:pageopacity="0"
     inkscape:pagecheckerboard="0"
     inkscape:deskcolor="#505050"
     inkscape:zoom="10.6875"
     inkscape:cx="32"
     inkscape:cy="26.19883"
     inkscape:window-width="1920"
     inkscape:window-height="939"
     inkscape:window-x="0"
     inkscape:window-y="34"
     inkscape:window-maximized="1"
     inkscape:current-layer="_图层_1"
     showguides="true"><sodipodi:guide
       position="7.6134526,83.439664"
       orientation="1,0"
       id="guide7"
       inkscape:locked="false" /><sodipodi:guide
       position="120.24109,71.856006"
       orientation="1,0"
       id="guide8"
       inkscape:locked="false" /></sodipodi:namedview><!-- Generator: Adobe Illustrator 29.0.1, SVG Export Plug-In . SVG Version: 2.1.0 Build 192)  --><defs
     id="defs1"><style
       id="style1">
      .st0 {
        fill: #0071e9;
      }

      .st1 {
        fill: #fff;
      }

      .st2 {
        fill: #5aaaff;
        isolation: isolate;
        opacity: .5;
      }
    </style></defs><path
     class="st0"
     d="M18.2,0c-5.6,0-10.2,4.6-10.2,10.2v107.6c0,5.6,4.6,10.2,10.2,10.2h91.6c5.6,0,10.2-4.6,10.2-10.2V40.6L82.2,0H18.2Z"
     id="path1"
     style="fill:#e4e4e4;fill-opacity:1" /><path
     class="st2"
     d="m 82.761404,2.619883 v 29.2 c 0,3.2 2.145542,11.6 11.89801,11.6 h 24.966316 z"
     id="path2"
     style="fill:#b6b6b6;fill-opacity:1;stroke-width:0.987546" /><path
     class="st2"
     d="M 82.116964,0.02339171 V 29.223392 c 0,3.2 2.2,11.6 12.2,11.6 h 25.599996 z"
     id="path2-3"
     style="opacity:1;isolation:isolate;fill:#fafafa;fill-opacity:1" /><g
     id="g8"
     transform="matrix(2.5486443,0,0,2.2921925,-17.650186,-9.4904073)"><path
       style="fill:#3f3f3f"
       d="M 32,27 A 14,14 0 0 0 18,41 14,14 0 0 0 32,55 14,14 0 0 0 46,41 14,14 0 0 0 32,27 Z m 0,3 A 11,11 0 0 1 43,41 11,11 0 0 1 32,52 11,11 0 0 1 21,41 11,11 0 0 1 32,30 Z"
       id="path6" /><path
       style="fill:#3f3f3f"
       d="m 32,33 a 8,8 0 0 0 -8,8 8,8 0 0 0 8,8 8,8 0 0 0 5.470703,-2.175781 l -2.46875,-1.832031 A 5,5 0 0 1 32,46 a 5,5 0 0 1 -5,-5 5,5 0 0 1 5,-5 5,5 0 0 1 3.041016,1.039062 l 2.470703,-1.833984 A 8,8 0 0 0 32,33 Z"
       id="path7" /></g></svg>
